src/actions/22/flash.svg

<svg xmlns="http://www.w3.org/2000/svg" viewBox="0 0 22 22">
    <path d="M2 4v12h2v2h16V6h-2V4H2zm1 1h14v1H4v9H3V5zm2 2h14v10H5V7zm5 2v6l4-3-4-3z" style="fill:currentColor;fill-opacity:1;stroke:none;color:#050505;opacity:.7"/>
</svg>

<svg xmlns="http://www.w3.org/2000/svg" viewBox="0 0 22 22">
  <defs id="defs3051">
    <style type="text/css" id="current-color-scheme">
      .ColorScheme-Text {
        color:#363636;
      }
      </style>
  </defs>
 <path 
     style="fill:currentColor;fill-opacity:1;stroke:none" 
     d="M 2 4 L 2 16 L 4 16 L 4 18 L 20 18 L 20 6 L 18 6 L 18 4 L 2 4 z M 3 5 L 17 5 L 17 6 L 4 6 L 4 15 L 3 15 L 3 5 z M 5 7 L 19 7 L 19 17 L 5 17 L 5 7 z M 10 9 L 10 15 L 14 12 L 10 9 z "
     class="ColorScheme-Text"
     />
</svg>
